X:229
T:Steirische Jodler und Taenze Nr. 1 - 48 (27.)
C:traditionell
A:Salzkammergut
S:MIDI erhalten von Christian Amon. Nach einer kopie im besitz von Johann Stoeckl eines manuscriptes. Stoeckl(zitiert von Amon): "diese sammlung wurde 1935 im hause der familie Hohenlohe-Schillingfuerst gefunden. Sie wurde von einem der beiden brueder Steinegger 1866 verfasst. Die originale sind im Ausseer Kammerhofmuseum".
M:3/4
L:1/8
K:G
V:1
dg |\
a3 f dc' | b3 g Bg | a3 f df | c3 d Bg |\
a3 f dc' | b3 g Bg | a3 f df | g4 |*
V:2
gb |\
c'3 a fe' | d'3 b gb | c'3 a fa | b3 g db |\
c'3 a fe' | d'3 b gb | c'3 a fa | b4 |*
